X: 1
T:Stuck in my head  "Third part: 1st & 2nd parts together, with seconds
M:C|
L:1/8
Q:80
C:Gary M. Bottoni
S:
K:HP
[| {ag}a4|
g2{a}A2|
{ag}a4|  !
g2{a}f2|
{ag}a4|
g2{a}A2|  !
{ag}a4|
A2{Gdc}d2|] [|
{g}f4|  !
a2e2|
{g}f4|
a2A2{g}f4|
a2e2|  !
{g}f4|
A2{Gdc}d2|]
